icons/rspec.svg

<svg viewBox="0 0 128 128" fill="none" xmlns="http://www.w3.org/2000/svg">
  <path fill-rule="evenodd" clip-rule="evenodd" d="M50.6334 39.4681H48.3663L33.824 54.661L34.2467 55.6909L42.8713 57.2541L42.8713 57.2541L34.2466 55.6909L37.2977 63.1284H37.2976L63.5624 94.5988L63.5624 94.5987L63.5625 94.5988L63.5626 94.5988L89.8239 63.1284H89.824L92.8751 55.6909L84.2504 57.2541H84.2502L84.1545 56.7231L71.2655 56.7402L84.1534 56.7231L76.4892 39.5V39.4681H72.9744H72.9744H63.5626H63.5625H54.1472L55.8562 56.738V56.7402H55.856V56.738L54.1471 39.4681H50.6335H50.6334ZM63.5625 94.5988L63.5625 94.5986L63.5625 94.5985L63.5624 94.5986L63.5625 94.5988ZM63.5624 94.5985L46.7393 64.3213L46.7392 64.3214L63.5624 94.5988L63.5624 94.5986L63.5624 94.5985ZM63.5624 94.5985L63.5623 94.5981L52.2571 64.752L52.085 64.2951L52.085 64.2951L52.257 64.752L63.5624 94.5985ZM84.1809 57.2655H84.1807L80.6477 64.4523H80.6479L84.1809 57.2655ZM80.6455 64.4523L80.5168 64.7144H80.5168L80.6456 64.4523H80.6455ZM75.0366 64.2951L75.0365 64.2951L74.8645 64.752L74.8646 64.752L75.0366 64.2951ZM71.0501 57.4286L71.05 57.4284L67.4122 66.6273L67.2196 66.6025L67.4123 66.6284L67.4124 66.6284L71.0501 57.4286ZM59.7094 66.6284L57.3941 60.7712L59.7092 66.6273L59.9049 66.6023L59.7094 66.6284ZM63.5625 94.5982L67.2174 66.6022H67.2174L63.5625 94.5985L63.5625 94.5982ZM42.9419 57.2655L46.4738 64.4523H46.4739L42.942 57.2655H42.9419ZM78.7554 39.4681L93.2977 54.661L92.875 55.6909L84.2503 57.2541L84.1546 56.7231L76.4893 39.5V39.4681H78.7554ZM56.0727 56.7402L63.5626 56.7516L63.5624 56.7516L56.0727 56.7402Z" fill="#FF1744" />
  <path d="M120 64C120 71.3213 118.594 78.3145 116.04 84.7231L116.027 84.7175L107.7 86.374L102.494 78.6038C104.218 74.0659 105.16 69.1418 105.16 64C105.16 42.6183 88.8588 25.0454 68.0046 23.0322L68.0103 22.9707L73.642 15.3703L69.3844 8.25635C97.7865 10.9634 120 34.8892 120 64Z" fill="#80DEEA" />
  <path d="M106.557 89.4308L114.698 87.8118C105.749 106.834 86.4117 120 64.0001 120C41.5247 120 22.1425 106.761 13.2273 87.6535L13.2387 87.6478L17.7447 80.4495L26.9698 81.9933H26.9732C33.6462 95.7096 47.7192 105.16 64.0001 105.16C80.4565 105.16 94.657 95.5023 101.243 81.5467L101.292 81.5695" fill="#4DD0E1" />
  <path d="M64.8078 22.8397V22.8488C64.54 22.8431 64.2712 22.8397 64 22.8397C41.2682 22.8397 22.8397 41.2671 22.8397 64C22.8397 69.3172 23.8491 74.3952 25.6834 79.0618L25.6344 79.0824L16.3034 77.5215L11.8965 84.5591C9.37972 78.196 8 71.2598 8 64C8 33.0719 33.0719 8 64 8C64.6768 8 65.3478 8.01139 66.0189 8.03532L70.3791 15.3236" fill="#26C6DA" />
</svg>

<svg xmlns="http://www.w3.org/2000/svg" fill="none" viewBox="0 0 128 128"><path fill="#FF1744" fill-rule="evenodd" d="M50.633 39.468h-2.267L33.824 54.661l.423 1.03 8.624 1.563-8.624-1.563 3.05 7.437 26.265 31.47 26.262-31.47 3.051-7.437-8.625 1.563-.096-.53-12.888.016 12.887-.017L76.49 39.5v-.032H54.147l1.71 17.27v.002h-.001v-.002l-1.709-17.27h-3.514Zm12.93 55.13Zm0 0L46.738 64.322 63.562 94.6Zm0 0L52.256 64.752l-.172-.457.172.457 11.305 29.847ZM84.18 57.267l-3.533 7.186 3.533-7.186Zm-3.535 7.186-.13.262.13-.262Zm-5.61-.157-.171.457.172-.457ZM71.05 57.43l-3.638 9.198-.192-.024.192.025 3.638-9.2Zm-11.34 9.2-2.316-5.858 2.315 5.856.196-.025-.196.026Zm3.852 27.97 3.655-27.997-3.654 27.996Zm-20.62-37.334 3.532 7.187-3.532-7.186Zm35.813-17.797 14.543 15.193-.423 1.03-8.625 1.563-.095-.53L76.489 39.5v-.032h2.266ZM56.073 56.74l7.49.012-7.49-.012Z" clip-rule="evenodd"/><path fill="#80DEEA" d="M120 64a55.856 55.856 0 0 1-3.96 20.723l-.013-.005-8.327 1.656-5.206-7.77A41.04 41.04 0 0 0 105.16 64c0-21.382-16.301-38.955-37.155-40.968l.005-.061 5.632-7.6-4.258-7.115C97.787 10.963 120 34.89 120 64Z"/><path fill="#4DD0E1" d="m106.557 89.43 8.141-1.618C105.749 106.834 86.412 120 64 120c-22.475 0-41.858-13.239-50.773-32.347l.012-.005 4.506-7.198 9.225 1.543h.003C33.646 95.71 47.72 105.16 64 105.16c16.457 0 30.657-9.658 37.243-23.613l.049.023"/><path fill="#26C6DA" d="M64.808 22.84v.009c-.268-.006-.537-.01-.808-.01-22.732 0-41.16 18.428-41.16 41.161 0 5.317 1.01 10.395 2.843 15.062l-.049.02-9.33-1.56-4.407 7.037A55.774 55.774 0 0 1 8 64C8 33.072 33.072 8 64 8c.677 0 1.348.011 2.019.035l4.36 7.289"/></svg>
